public/piece/fabirovsky/wK.svg

<svg xmlns="http://www.w3.org/2000/svg" width="100" height="100"><defs><clipPath id="A"><path d="M0 0h100v100H0z"/></clipPath></defs><g clip-path="url(#A)"><circle vector-effect="non-scaling-stroke" cx="50" cy="50" r="40" fill="#fff"/><linearGradient id="B" x1="50" y1="25" x2="50" y2="74.923" gradientUnits="userSpaceOnUse"><stop offset="0%" stop-opacity=".1" stop-color="#fff"/><stop offset="100%" stop-opacity=".098" stop-color="#000"/></linearGradient><path d="M50 25c-13.807 0-25 11.193-25 25s11.193 25 25 25 25-11.193 25-25-11.193-25-25-25z" fill-rule="evenodd" fill="url(#B)"/><linearGradient id="C" x1="50" y1="10" x2="49.735" y2="90" gradientUnits="userSpaceOnUse"><stop offset="0%" stop-opacity=".1" stop-color="#fff"/><stop offset="100%" stop-opacity=".098" stop-color="#000"/></linearGradient><path d="M50 10c-10.61 0-20.783 4.214-28.284 11.716S10 39.39 10 50s4.214 20.783 11.716 28.284S39.39 90 50 90s20.783-4.214 28.284-11.716S90 60.61 90 50s-4.214-20.783-11.716-28.284S60.61 10 50 10h0zm0 5c19.33 0 35 15.67 35 35S69.33 85 50 85 15 69.33 15 50s15.67-35 35-35z" fill-rule="evenodd" fill="url(#C)"/><linearGradient id="D" x1="50" y1="84.77" x2="50" y2="15" gradientUnits="userSpaceOnUse"><stop offset="0%" stop-opacity=".1" stop-color="#fff"/><stop offset="100%" stop-opacity=".098" stop-color="#000"/></linearGradient><g fill-rule="evenodd"><path d="M50 15c-19.33 0-35 15.67-35 35s15.67 35 35 35 35-15.67 35-35-15.67-35-35-35zm0 10c6.63 0 12.99 2.634 17.678 7.322S75 43.37 75 50s-2.634 12.99-7.322 17.678S56.63 75 50 75s-12.99-2.634-17.678-7.322S25 56.63 25 50s2.634-12.99 7.322-17.678S43.37 25 50 25h0z" fill="url(#D)"/><path d="M38.5 49.96l1.6 9.49c.15 1.5 1.5 2.55 2.85 2.55H56.9c1.5 0 2.7-1.05 3-2.55l1.6-9.49c.162.027.33.04.5.04a3 3 0 1 0 0-6 3 3 0 0 0-3 3c0 .394.076.77.214 1.114L54.5 50l-3.158-6.316A3 3 0 0 0 50 38a3 3 0 0 0-1.342 5.684L45.5 50l-4.714-1.886c.138-.344.214-.72.214-1.114a3 3 0 1 0-6 0 3 3 0 0 0 3 3c.17 0 .337-.014.5-.04z" fill="#323232"/></g></g></svg>

<?xml version="1.0" standalone="no"?><!-- Generator: Gravit.io --><svg xmlns="http://www.w3.org/2000/svg" xmlns:xlink="http://www.w3.org/1999/xlink" style="isolation:isolate" viewBox="0 0 100 100" width="100" height="100"><defs><clipPath id="_clipPath_cnMYNVUpo3l47sMeDG1vZoiXxzqPsaA6"><rect width="100" height="100"/></clipPath></defs><g clip-path="url(#_clipPath_cnMYNVUpo3l47sMeDG1vZoiXxzqPsaA6)"><circle vector-effect="non-scaling-stroke" cx="50" cy="50" r="39.99999716527998" fill="rgb(255,255,255)"/><linearGradient id="_lgradient_88" x1="0.5000000663908597" y1="-3.420572791679177e-8" x2="0.5000000663908595" y2="0.9984581620302984" gradientTransform="matrix(50,0,0,50,25,25)" gradientUnits="userSpaceOnUse"><stop offset="0%" stop-opacity="0.1" style="stop-color:rgb(255,255,255)"/><stop offset="100%" stop-opacity="0.09803922" style="stop-color:rgb(0,0,0)"/></linearGradient><path d=" M 50 25 C 36.193 25 25 36.193 25 50 C 25 63.807 36.193 75 50 75 C 63.807 75 75 63.807 75 50 C 75 36.193 63.807 25 50 25 Z " fill-rule="evenodd" fill="url(#_lgradient_88)"/><linearGradient id="_lgradient_89" x1="0.5000000000000001" y1="-1.2499999355042313e-8" x2="0.49668226250000014" y2="0.9999999999999102" gradientTransform="matrix(80,0,0,80,10,10)" gradientUnits="userSpaceOnUse"><stop offset="0%" stop-opacity="0.1" style="stop-color:rgb(255,255,255)"/><stop offset="100%" stop-opacity="0.09803922" style="stop-color:rgb(0,0,0)"/></linearGradient><path d=" M 50 10 C 39.391 10 29.217 14.214 21.716 21.716 C 14.214 29.217 10 39.391 10 50 C 10 60.609 14.214 70.783 21.716 78.284 C 29.217 85.786 39.391 90 50 90 C 60.609 90 70.783 85.786 78.284 78.284 C 85.786 70.783 90 60.609 90 50 C 90 39.391 85.786 29.217 78.284 21.716 C 70.783 14.214 60.609 10 50 10 L 50 10 Z  M 50 15 C 69.33 15 85 30.67 85 50 C 85 69.33 69.33 85 50 85 C 30.67 85 15 69.33 15 50 C 15 30.67 30.67 15 50 15 Z " fill-rule="evenodd" fill="url(#_lgradient_89)"/><linearGradient id="_lgradient_90" x1="0.5" y1="0.9967140142857144" x2="0.5000000000000001" y2="0" gradientTransform="matrix(70,0,0,70,15,15)" gradientUnits="userSpaceOnUse"><stop offset="0%" stop-opacity="0.1" style="stop-color:rgb(255,255,255)"/><stop offset="100%" stop-opacity="0.09803922" style="stop-color:rgb(0,0,0)"/></linearGradient><path d=" M 50 15 C 30.67 15 15 30.67 15 50 C 15 69.33 30.67 85 50 85 C 69.33 85 85 69.33 85 50 C 85 30.67 69.33 15 50 15 Z  M 50 25 C 56.63 25 62.989 27.634 67.678 32.322 C 72.366 37.011 75 43.37 75 50 C 75 56.63 72.366 62.989 67.678 67.678 C 62.989 72.366 56.63 75 50 75 C 43.37 75 37.011 72.366 32.322 67.678 C 27.634 62.989 25 56.63 25 50 C 25 43.37 27.634 37.011 32.322 32.322 C 37.011 27.634 43.37 25 50 25 L 50 25 Z " fill-rule="evenodd" fill="url(#_lgradient_90)"/><path d=" M 38.499 49.959 L 40.1 59.45 C 40.25 60.95 41.6 62 42.95 62 L 56.9 62 C 58.4 62 59.6 60.95 59.9 59.45 L 61.501 49.959 C 61.663 49.986 61.83 50 62 50 C 63.656 50 65 48.656 65 47 C 65 45.344 63.656 44 62 44 C 60.344 44 59 45.344 59 47 C 59 47.394 59.076 47.77 59.214 48.114 L 54.5 50 L 51.342 43.684 C 52.325 43.191 53 42.174 53 41 C 53 39.344 51.656 38 50 38 C 48.344 38 47 39.344 47 41 C 47 42.174 47.675 43.191 48.658 43.684 L 45.5 50 L 40.786 48.114 C 40.924 47.77 41 47.394 41 47 C 41 45.344 39.656 44 38 44 C 36.344 44 35 45.344 35 47 C 35 48.656 36.344 50 38 50 C 38.17 50 38.337 49.986 38.499 49.959 Z " fill-rule="evenodd" fill="rgb(50,50,50)"/></g></svg>
